dist/icons/svgs/seat-airline-solid.svg

<svg xmlns="http://www.w3.org/2000/svg" width="24" height="24" fill="currentcolor" class="icon-seat-airline-solid" viewBox="0 0 24 24">
  <path d="M5.75 3.25V7.625C5.75 7.89844 5.78906 8.13281 5.86719 8.36719L6.375 9.5H15.75C16.4141 9.5 17 10.0859 17 10.75C17 11.4531 16.4141 12 15.75 12H7.46875L7.97656 13.25H19.5C19.9688 13.25 20.3984 13.5234 20.5938 13.9531C20.8281 14.3828 20.75 14.8906 20.4766 15.2812L18.7969 17.5078C18.4453 17.9766 17.8984 18.25 17.3125 18.25H13.5625V20.125H17.3125C17.8203 20.125 18.25 20.5547 18.25 21.0625C18.25 21.6094 17.8203 22 17.3125 22H7.9375C7.39062 22 7 21.6094 7 21.0625C7 20.5547 7.39062 20.125 7.9375 20.125H11.6875V18.25H9.89062C8.36719 18.25 7.03906 17.3906 6.45312 15.9844L3.60156 9.34375C3.36719 8.79688 3.25 8.21094 3.25 7.625V3.25C3.25 2.58594 3.79688 2 4.5 2C5.16406 2 5.75 2.58594 5.75 3.25Z"/>
</svg>

<svg xmlns="http://www.w3.org/2000/svg" width="24" height="24" fill="currentColor" class="icon-seat-airline-solid" viewBox="0 0 24 24">
  <path d="M5.75 3.25v4.375c0 .273.04.508.117.742L6.375 9.5h9.375c.664 0 1.25.586 1.25 1.25 0 .703-.586 1.25-1.25 1.25H7.469l.508 1.25H19.5c.469 0 .898.273 1.094.703.234.43.156.938-.117 1.328l-1.68 2.227a1.85 1.85 0 0 1-1.485.742h-3.75v1.875h3.75a.95.95 0 0 1 .938.938c0 .546-.43.937-.937.937H7.938C7.39 22 7 21.61 7 21.063c0-.508.39-.938.938-.938h3.75V18.25H9.89c-1.524 0-2.852-.86-3.438-2.266l-2.851-6.64a4.4 4.4 0 0 1-.352-1.719V3.25A1.26 1.26 0 0 1 4.5 2c.664 0 1.25.586 1.25 1.25"/>
</svg>
